!!!!SEGMENT: pl-kk--kk-i-8--004_rozycki-jacek--regina-terrae-regina-caeli.krn
!!!cenid: 16xx:1145
!!!COM: Różycki, Jacek
!!!COM-rismID:
!!!CDT: ~1635-~1703
!!!CNT: Polish
!!!OTL: Regina terrae Regina caeli
!!!PDT:
!!!AGN: Sacred
!!!SMS-siglum: PL-Kk
!!!SMS-shelfmark: Kk.I.8
!!!SMS-shelfwork: 004 W
!!!SMS-variant:
!!!SMS-altvar:
!!!NIFC-rismSourceID: 1001148295
!!!NIFC-islandoraID: pl-kk:2296
!!!URL-pdf-islandora: https://repozytorium.nifc.pl/islandora/object/pl-kk%3A2296/datastream/PDF/view
!!!URL-scan: https://polish.musicsources.pl/pl/lokalizacje/galeria/rekopisy/6141 @EN{Scan on Polish Music Herritage in Open Access Website} @PL{Skany w portalu Dziedzictwo Muzyki Polskiej w otwartym dostępie}
!!!ONB-nifc: UWAGA: A (skan 0004), T1 (0027), T2 (0051), B (0074). Pierwsza pięciolinia. Następny utwór: Regina terrae Regina caeli (na drugiej pięciolinii)
!!!AIN: 1 alto 1 bass 1 soprn 1 tenor
!!!key:
**kern	**fba	**text	**text	**text	**text	**kern	**text	**text	**text	**text	**kern	**text	**text	**text	**text	**kern	**text	**text	**text	**text
*part4	*part4	*part4	*part4	*part4	*part4	*part3	*part3	*part3	*part3	*part3	*part2	*part2	*part2	*part2	*part2	*part1	*part1	*part1	*part1	*part1
*staff4	*	*staff4	*staff4	*staff4	*staff4	*staff3	*staff3	*staff3	*staff3	*staff3	*staff2	*staff2	*staff2	*staff2	*staff2	*staff1	*staff1	*staff1	*staff1	*staff1
*Ibass	*	*	*	*	*	*Itenor	*	*	*	*	*Ialto	*	*	*	*	*Isoprn	*	*	*	*
*I"Basso	*	*	*	*	*	*I"Tenore	*	*	*	*	*I"Alto	*	*	*	*	*I"Canto	*	*	*	*
*I'B.	*	*	*	*	*	*I'T.	*	*	*	*	*I'A.	*	*	*	*	*I'C.	*	*	*	*
*clefF4	*	*	*	*	*	*clefC4	*	*	*	*	*clefC4	*	*	*	*	*clefC3	*	*	*	*
*k[]	*	*	*	*	*	*k[]	*	*	*	*	*k[]	*	*	*	*	*k[]	*	*	*	*
*a:	*	*	*	*	*	*a:	*	*	*	*	*a:	*	*	*	*	*a:	*	*	*	*
*M3/1	*	*	*	*	*	*M3/1	*	*	*	*	*M3/1	*	*	*	*	*M3/1	*	*	*	*
=1	=1	=1	=1	=1	=1	=1	=1	=1	=1	=1	=1	=1	=1	=1	=1	=1	=1	=1	=1	=1
1D\	.	Re-	In	Tri-	Quid-	1A\	Re-	In	Tri-	Quid-	1d\	Re-	In	Tri-	Quid-	1f\	Re-	In	Tri-	Quid-
1C/	6	-gi-	tu-	-um-	-go	1c\	-gi-	tu-	-um-	-go	1A\	-gi-	tu-	-um-	-go	1e\	-gi-	tu-	-um-	-go
1BB/	6#	-na	-a	-phos	i-	1G#X/	-na	-a	-phos	i-	1B\	-na	-a	-phos	i-	1d\	-na	-a	-phos	i-
=2	=2	=2	=2	=2	=2	=2	=2	=2	=2	=2	=2	=2	=2	=2	=2	=2	=2	=2	=2	=2
0AA/	-	ter-	ma-	Re-	-ra-	0A\	ter-	ma-	Re-	-ra-	0c\	ter-	ma-	Re-	-ra-	0e\	ter-	Ma-	Re-	-ra-
1E\	#	-rae	-nu	-gum	-tus	1G#X/	-rae	-nu	-gum	-tus	1B\	-rae	-nu	-gum	-tus	1f\	-rae	-nu	-g(um)	-t(us)
=3	=3	=3	=3	=3	=3	=3	=3	=3	=3	=3	=3	=3	=3	=3	=3	=3	=3	=3	=3	=3
1F\	.	Re-	pax	scep-	de-	1A\	Re-	pax	ſcep-	de-	1A\	Re-	pax	ſcep-	de-	1f\	Re-	pax	scep-	de-
*	*	*	*	*	*	*	*	*	*	*	*2\right	*	*	*	*	*	*	*	*	*
1D\	.	-gi-	di-	-tra	-cer-	1A\	-gi-	di-	-tra	-cer-	(2d\	-gi-	di-	-tra	-cer-	1f\	-gi-	di-	-tra	-cer-
.	.	.	.	.	.	.	.	.	.	.	2c\)	.	.	.	.	.	.	.	.	.
1AA/	.	-na	-ves	Co-	-nit	1A\	-na	-ves	Co-	-nit	(2B\	-na	-ves	Co-	-nit	1e\	-na	-ves	Co-	-nit
.	.	.	.	.	.	.	.	.	.	.	2c\)	.	.	.	.	.	.	.	.	.
=4	=4	=4	=4	=4	=4	=4	=4	=4	=4	=4	=4	=4	=4	=4	=4	=4	=4	=4	=4	=4
0E\	4#	cae-	re-	-ro-	na-	1.A\	cae-	re-	-ro-	na-	0B\	cae-	re-	-ro-	na-	0e\	cae-	re-	-ro-	na-
.	.	.	.	.	.	2G#X/	.	.	.	.	.	.	.	.	.	.	.	.	.	.
1AA/	#	-li	-rum	-nas	-tus	1c#X\	-li	-rum	-nas	-tus	1A\	-li	-rum	-nas	-tus	1e\	-li	-r(um)	-nas,	-t(us)
=5	=5	=5	=5	=5	=5	=5	=5	=5	=5	=5	=5	=5	=5	=5	=5	=5	=5	=5	=5	=5
1D\	#	te	flo-	in	tu-	1d\	te	flo-	in	tu-	1A\	te	flo-	in	tu-	1f#X\	te	flo-	in	con-
1GG/	.	o-	-ret	tu-	-is	1d\	o-	-ret	tu-	-is	1B-X\	o-	-ret	tu-	-is	1g\	o-	-ret	tu-	-do-
!	!	!	!	!	!	!LO:N:acc=-	!	!	!	!	!	!	!	!	!	!LO:N:acc=-	!	!	!	!
(2AA/	5-	-rant	et	-a	con-	1cn\	-rant	et	-o	con-	1A\	-rant	et	-a	con-	1fn\	-rant	et	-o	-nat
2BB-X/)	.	.	.	.	.	.	.	.	.	.	.	.	.	.	.	.	.	.	.	.
=6	=6	=6	=6	=6	=6	=6	=6	=6	=6	=6	=6	=6	=6	=6	=6	=6	=6	=6	=6	=6
0C/	.	gen-	ces-	si-	-do-	0c\	gen-	ceſ-	si-	-do-	0G/	gen-	ceſ-	si-	-do-	0e\	gen-	ceſ-	si-	tu-
1C/	.	-tes	-sat	-nu	-nat	1c\	-tes	-sat	-nu	-nat	1G/	-tes	-sat	-nu	-nat	1e\	-tes	-sat	-nu	-is
=7	=7	=7	=7	=7	=7	=7	=7	=7	=7	=7	=7	=7	=7	=7	=7	=7	=7	=7	=7	=7
*lig	*	*	*	*	*	*	*	*	*	*	*	*	*	*	*	*	*	*	*	*
1AA/	.	te	bel-	fo-	Mam-	0A\	lau	bel-	fo-	mam-	0c\	te	bel-	fo-	mam-	1e\	te	bel-	fo-	mam-
1D\	7	.	.	.	.	.	.	.	.	.	.	.	.	.	.	1f\	.	.	.	.
*Xlig	*	*	*	*	*	*	*	*	*	*	*	*	*	*	*	*	*	*	*	*
1GG/	-	lau-	-lum	-ves	-mis	1d\	.	-lum	-ves	-mis	1B-X\	lau-	-lum	-ves	-mis	1g\	lau-	-l(um)	-ves	-mis
=8	=8	=8	=8	=8	=8	=8	=8	=8	=8	=8	=8	=8	=8	=8	=8	=8	=8	=8	=8	=8
1C/	- 7	-dant	se-	et-	pla-	1e-X\	-dant	ſe-	et-	pla-	1B\	-dant	ſe-	et-	pla-	1g\	-dant	se-	et-	pla-
1.D\	5 4	An-	.	.	.	1.d\	An-	.	.	.	1.A\	An-	.	.	.	1.g\	An-	.	.	.
*	*	*	*	*	*	*2\right	*	*	*	*	*	*	*	*	*	*	*	*	*	*
2D/	x 6	-ge-	-ve-	-do-	-ca-	2c\	-ge-	-ve-	-do-	-ca-	2A/	-ge-	-ve-	-do-	-ca-	2f\	-ge-	-ve-	-do-	-ca-
!	!	!	!	!	!	!LO:PB:g=original	!	!	!	!	!	!	!	!	!	!LO:PB:g=original	!	!	!	!
=9	=9	=9	=9	=9	=9	=9	=9	=9	=9	=9	=9	=9	=9	=9	=9	=9	=9	=9	=9	=9
0.GG/;	.	-li	-rum	-nas	-tus	0.B#X\	-li	-rum	-nas	-tus	0.G/	-li	-rum	-nas	-tus	0.g\	-li	-r(um)	-nas	-t(us)
!LO:PB:g=original	!	!	!	!	!	!	!	!	!	!	!LO:PB:g=original	!	!	!	!	!	!	!	!	!
=10||	=10||	=10||	=10||	=10||	=10||	=10||	=10||	=10||	=10||	=10||	=10||	=10||	=10||	=10||	=10||	=10||	=10||	=10||	=10||	=10||
1C/	.	Sa-	Vir-	Com-	Ma-	1c\	Sa-	Vir-	Com-	Ma-	1G/	Sa-	Vir-	Com-	Ma-	1e\	Sa-	Vir-	Com-	Ma-
1BB-X/	6	-lus	-tus	-pes-	-ter	1d\	-lus	-tus	-peſ-	-ter	1G/	-lus	-tus	-peſ-	-ter	1e\	-l(us)	-tus	-pes-	-ter
!	!	!	!	!	!	!	!	!	!	!	!	!	!	!	!	!LO:TX:a:t=P:problem=# above	!	!	!	!
1AA/	.	hu-	et	-ce	es	1c\	hu-	et	-ce	es	1A\	hu-	et	-ce	es	1f#X\	hu-	et	-ce	es,
=11	=11	=11	=11	=11	=11	=11	=11	=11	=11	=11	=11	=11	=11	=11	=11	=11	=11	=11	=11	=11
0GG/	.	-ma-	ho-	bel-	pu-	0d\	-ma-	ho-	bel-	pu-	0B-X\	-ma-	ho-	bel-	pu-	0g\	-ma-	ho-	bel-	pu-
!	!	!	!	!	!	!	!	!	!	!	!	!	!	!	!	!LO:N:acc=-	!	!	!	!
1AA/	.	-na	-nor	-la	-er	1c\	-na	-nor	-la	-er	1A\	-na	-nor	-la	-er	1fnX\,	-na	-nor	-la	-er
=12	=12	=12	=12	=12	=12	=12	=12	=12	=12	=12	=12	=12	=12	=12	=12	=12	=12	=12	=12	=12
1BB-X/	5	vi-	sa-	fis-	est	1B-X\	vi-	ſa-	fiſ-	eſt	1F/	vi-	ſa-	fis-	eſt	1f\	vi-	sa-	fis-	eſt
.	6	.	.	.	.	.	.	.	.	.	.	.	.	.	.	.	.	.	.	.
1BB-/	.	-dfrix	-lus	-te	ad-	1B-\	-drix	-lus	-te	ad-	1G/	-dfrix	-lus	-te	ad-	1f\	-trix	-lus	-te	ad-
1AA/	6	in-	et	cru-	-huc	1c\	in-	et	cru-	-huc	1A\	in-	et	Cru-	-huc	1f\	in-	et	cru-	-huc
=13	=13	=13	=13	=13	=13	=13	=13	=13	=13	=13	=13	=13	=13	=13	=13	=13	=13	=13	=13	=13
0C/	.	-fer-	vi-	-o-	il-	0c\	-fer-	Vi-	-o-	il-	0G/	-fer-	vi-	-o-	il-	1.f\	-fer-	vi-	-o-	il-
.	.	.	.	.	.	.	.	.	.	.	.	.	.	.	.	2e\	.	.	.	.
1FF/	.	-ni	-ta	-rem	-le	1c\	-ni	-ta	-rem	-le	1F/	-ni	-ta	-rem	-le	1f\	-ni	-ta	-r(em)	-le,
=14	=14	=14	=14	=14	=14	=14-	=14	=14	=14	=14	=14	=14	=14	=14	=14	=14	=14	=14	=14	=14
1F\	.	Por-	ad	fac	oc-	1c\	Por-	ad	fac	oc-	1A\	Por-	ad	fac	oc-	1f\	Por-	ad	fac	oc-
1A\	.	-ta	tu-	Re-	-cu-	1c\	-ta	tu-	Re-	-cu-	1c\	-ta	tu-	Re-	-cu-	1e\	-ta	tu-	Re-	-cu-
*2\right	*	*	*	*	*	*	*	*	*	*	*	*	*	*	*	*	*	*	*	*
(2G\	.	et	-a	-gem	-pa	1d\	et	-a	-gem	-pa	2B#X\	et	-a	-gem	-pa	1f\	et	-a	-g(em)	-pa
2F\)	.	.	.	.	.	.	.	.	.	.	2A\	.	.	.	.	.	.	.	.	.
=15	=15	=15	=15	=15	=15	=15	=15	=15	=15	=15	=15	=15	=15	=15	=15	=15	=15	=15	=15	=15
1.E\	.	cla-	dan-	nos-	e-	0e\	cla-	dan-	noſ-	e-	1B\	cla-	dan-	noſ-	e-	0g\	cla-	dan-	nos-	e-
.	.	.	.	.	.	.	.	.	.	.	2c\	.	.	.	.	.	.	.	.	.
2D\	.	.	.	.	.	.	.	.	.	.	2d\	.	.	.	.	.	.	.	.	.
1C#X/	.	-vis	-tur	-trum	-um	1A\	-vis	-tur	-trum	-um	1e\	-vis	-tur	-trum	-(um)	1g\	-vis	-t(us)	-tr(um)	-um
=16	=16	=16	=16	=16	=16	=16	=16	=16	=16	=16	=16	=16	=16	=16	=16	=16	=16	=16	=16	=16
1D\	.	Re-	lar-	hos-	bas-	1A\	Re-	lar-	hoſ-	baſ-	1d\	Re-	lar-	hoſ-	baſ-	1f\	Re-	lar-	Hos-	bas-
1BB-X/	.	-gis	-ge	-tis	-i-	1B-X\	-gis	-ge	-tis	-i-	1d\	-gis	-ge	-tis	-si-	1f\	-gis	-ge	-tis	-i-
1FF/	.	ae-	pe-	vic-	-is	1A\	ae-	pe-	vic-	-is	1d\	ae-	pe-	vic-	-is	1f\	ae-	pe-	Vic-	-is
=17	=17	=17	=17	=17	=17	=17	=17	=17	=17	=17	=17	=17	=17	=17	=17	=17	=17	=17	=17	=17
(1GG/	.	-ter-	-ti-	-to-	mil-	(1B-X\	-ter-	-ti-	-to-	mil-	0d\	-ter-	-ti-	-to-	mil-	1f\	-ter-	-ti-	-to-	mil-
0AA/)	.	.	.	.	.	0A\)	.	.	.	.	.	.	.	.	.	0e\	.	.	.	.
.	.	.	.	.	.	.	.	.	.	.	1c#X\	.	.	.	.	.	.	.	.	.
=18	=18	=18	=18	=18	=18	=18	=18	=18	=18	=18	=18	=18	=18	=18	=18	=18	=18	=18	=18	=18
0.D\;	.	-ni	-ta	-rem	-le	0.A\;;	-ni	-ta	-rem	-le	0.d\;;	-ni	-ta	-rem	-le.	0.f#X\;;	-ni	-ta	-r(em)	-le
==	==	==	==	==	==	==	==	==	==	==	==	==	==	==	==	==	==	==	==	==
*-	*-	*-	*-	*-	*-	*-	*-	*-	*-	*-	*-	*-	*-	*-	*-	*-	*-	*-	*-	*-
!!!system-decoration: [(s1,s2,s3,s4)]
!!!EED: Leszek Kubiak
!!!EEV: 2021-04-01
!!!ENC: Berenika Jozajtis
!!!END: 2021-03-23
